symbols/web/library_add_check/materialsymbolsrounded/library_add_check_wght700fill1_48px.svg

<svg xmlns="http://www.w3.org/2000/svg" height="48" width="48"><path d="m25.7 22.55-3.6-3.6q-.5-.5-1.225-.5-.725 0-1.225.5-.6.55-.6 1.25t.6 1.25L24 25.9q.7.7 1.65.7t1.65-.7l8.95-9q.45-.45.45-1.15t-.5-1.25q-.5-.5-1.25-.475-.75.025-1.25.525ZM14.3 38.4q-1.95 0-3.325-1.375Q9.6 35.65 9.6 33.7V6.6q0-1.95 1.375-3.35 1.375-1.4 3.325-1.4h27.1q1.95 0 3.35 1.4 1.4 1.4 1.4 3.35v27.1q0 1.95-1.4 3.325-1.4 1.375-3.35 1.375Zm-7.7 7.75q-1.95 0-3.35-1.4-1.4-1.4-1.4-3.35V11.95q0-1 .675-1.675T4.25 9.6q1 0 1.675.675T6.6 11.95V41.4h29.45q1 0 1.675.675t.675 1.675q0 1.05-.675 1.725t-1.675.675Z"/></svg>

<svg xmlns="http://www.w3.org/2000/svg" height="48" width="48"><path d="M25.7 22.55 22.1 18.95Q21.6 18.45 20.875 18.45Q20.15 18.45 19.65 18.95Q19.05 19.5 19.05 20.2Q19.05 20.9 19.65 21.45L24 25.9Q24.7 26.6 25.65 26.6Q26.6 26.6 27.3 25.9L36.25 16.9Q36.7 16.45 36.7 15.75Q36.7 15.05 36.2 14.5Q35.7 14 34.95 14.025Q34.2 14.05 33.7 14.55ZM14.3 38.4Q12.35 38.4 10.975 37.025Q9.6 35.65 9.6 33.7V6.6Q9.6 4.65 10.975 3.25Q12.35 1.85 14.3 1.85H41.4Q43.35 1.85 44.75 3.25Q46.15 4.65 46.15 6.6V33.7Q46.15 35.65 44.75 37.025Q43.35 38.4 41.4 38.4ZM6.6 46.15Q4.65 46.15 3.25 44.75Q1.85 43.35 1.85 41.4V11.95Q1.85 10.95 2.525 10.275Q3.2 9.6 4.25 9.6Q5.25 9.6 5.925 10.275Q6.6 10.95 6.6 11.95V41.4Q6.6 41.4 6.6 41.4Q6.6 41.4 6.6 41.4H36.05Q37.05 41.4 37.725 42.075Q38.4 42.75 38.4 43.75Q38.4 44.8 37.725 45.475Q37.05 46.15 36.05 46.15Z"/></svg>
